modules/themify-icons/icons/share-alt.svg

<?xml version="1.0" encoding="utf-8"?>
<!-- Generated by IcoMoon.io -->
<!DOCTYPE svg PUBLIC "-//W3C//DTD SVG 1.1//EN" "http://www.w3.org/Graphics/SVG/1.1/DTD/svg11.dtd">
<svg version="1.1" xmlns="http://www.w3.org/2000/svg" xmlns:xlink="http://www.w3.org/1999/xlink" width="17" height="17" viewBox="0 0 17 17">
<g>
</g>
	<path d="M5.527 8.229l-3.853-3.854 3.854-3.854 0.707 0.707-2.647 2.647h2.912c3.032 0 5.5 2.467 5.5 5.5 0 1.519-0.637 2.983-1.747 4.021l-0.682-0.73c0.921-0.862 1.429-2.030 1.429-3.291 0-2.481-2.019-4.5-4.5-4.5h-2.912l2.646 2.646-0.707 0.708zM16 9.025v6.475c0 0.275-0.225 0.5-0.5 0.5h-14c-0.275 0-0.5-0.225-0.5-0.5v-6.47h-1v6.47c0 0.827 0.673 1.5 1.5 1.5h14c0.827 0 1.5-0.673 1.5-1.5v-6.475h-1z" fill="#000000" />
</svg>

<svg xmlns="http://www.w3.org/2000/svg" width="17" height="17" viewBox="0 0 17 17"><path d="M5.527 8.229L1.674 4.375 5.528.521l.707.707-2.647 2.647H6.5c3.032 0 5.5 2.467 5.5 5.5a5.523 5.523 0 0 1-1.747 4.021l-.682-.73A4.463 4.463 0 0 0 11 9.375c0-2.481-2.019-4.5-4.5-4.5H3.588l2.646 2.646-.707.708zM16 9.025V15.5c0 .275-.225.5-.5.5h-14a.501.501 0 0 1-.5-.5V9.03H0v6.47c0 .827.673 1.5 1.5 1.5h14c.827 0 1.5-.673 1.5-1.5V9.025h-1z"/></svg>
